; generated by PrusaSlicer 2.4.0+win64 on 2022-04-12 at 18:26:50 UTC


;
;
; 

; external perimeters extrusion width = 0.42mm
; perimeters extrusion width = 0.45mm
; infill extrusion width = 0.45mm
; solid infill extrusion width = 0.45mm
; top infill extrusion width = 0.42mm
; first layer extrusion width = 0.45mm

M73 P0 R31
M73 Q0 S31
M201 X1000 Y1000 Z200 E3000 ; sets maximum accelerations, mm/sec^2
M203 X200 Y200 Z12 E120 ; sets maximum feedrates, mm/sec
M204 P1200 R1200 T1500 ; sets acceleration (P, T) and retract acceleration (R), mm/sec^2
M205 X6.00 Y6.00 Z0.40 E2.00 ; sets the jerk limits, mm/sec
M205 S0 T0 ; sets the minimum extruding and travel feed rate, mm/sec
M107 ; disable fan
;TYPE:Custom
M83  ; extruder relative mode
M140 S70 ; set bed temp
M109 S160 ; Set extruder temp before bed level
M190 S70 ; wait for bed temp


G28 W ; home all without mesh bed level
G80 ; mesh bed leveling set 3x3, 5x5, or 7x7 in settings menu

G1 Y-3.0 Z0.8 F1000.0 ; go outside print area

M109 S215 ; wait for extruder temp

G92 E0.0
G1 Z0.2 E8 ; Purge Bubble
G1 X60.0 E9.0  F1000.0 ; intro line
G1 X100.0 E12.5  F1000.0 ; intro line
G92 E0.0
G21 ; set units to millimeters
G90 ; use absolute coordinates
M83 ; use relative distances for extrusion
M900 K28; Filament gcode
M107 ; disable fan
;LAYER_CHANGE
;Z:0.2
;HEIGHT:0.2
;BEFORE_LAYER_CHANGE
G92 E0.0
;0.2




G1 E-.8 F1800 ; retract
G1 Z.2 F3600 ; lift Z
;AFTER_LAYER_CHANGE
;0.2
G1 Z.4 ; lift Z
G1 X99.484 Y91.532 ; move to first brim point
G1 Z.2 ; restore layer Z
G1 E.8 F1800 ;  ; unretract
M204 P1000 ; adjust acceleration
;TYPE:Skirt/Brim
;WIDTH:0.45
G1 F1200
G1 X100.596 Y90.67 E.04524 ; brim
G1 X101.933 Y90.095 E.04679 ; brim
G1 X103.392 Y89.879 E.04744 ; brim
G1 X146.628 Y89.881 E1.39031 ; brim
G1 X148.192 Y90.131 E.05092 ; brim
G1 X149.369 Y90.649 E.04137 ; brim
G1 X150.371 Y91.39 E.04007 ; brim
G1 X151.512 Y92.875 E.06022 ; brim
G1 X151.968 Y94.029 E.0399 ; brim
G1 X152.156 Y95.233 E.03918 ; brim
G1 X152.171 Y117.828 E.72657 ; brim
G1 X152.058 Y118.361 E.01751 ; brim
G1 X151.785 Y118.914 E.01984 ; brim
G1 X151.158 Y119.584 E.02949 ; brim
G1 X150.867 Y119.802 E.0117 ; brim
G1 X149.917 Y120.121 E.03223 ; brim
G1 X100.086 Y120.121 E1.60237 ; brim
G1 X99.37 Y119.918 E.02394 ; brim
G1 X99.01 Y119.719 E.01324 ; brim
G1 X98.367 Y119.109 E.02849 ; brim
G1 X98.149 Y118.817 E.01172 ; brim
G1 X97.829 Y117.866 E.03226 ; brim
G1 X97.845 Y95.219 E.72824 ; brim
G1 X98.087 Y93.841 E.04498 ; brim
G1 X98.646 Y92.601 E.04375 ; brim
G1 X99.447 Y91.58 E.04175 ; brim
G1 X99.768 Y91.831 F3600 ; move to first brim point
G1 F1200
G1 X100.823 Y91.009 E.04301 ; brim
G1 X102.067 Y90.48 E.04347 ; brim
G1 X103.406 Y90.286 E.04352 ; brim
G1 X146.612 Y90.288 E1.38935 ; brim
G1 X148.054 Y90.514 E.04691 ; brim
G1 X149.146 Y90.99 E.03831 ; brim
G1 X150.106 Y91.701 E.0384 ; brim
G1 X151.144 Y93.053 E.05483 ; brim
G1 X151.57 Y94.115 E.03679 ; brim
G1 X151.752 Y95.28 E.03792 ; brim
G1 X151.764 Y117.805 E.72431 ; brim
G1 X151.666 Y118.246 E.01453 ; brim
M73 P1 R31
M73 Q1 S31
G1 X151.436 Y118.702 E.01643 ; brim
G1 X150.877 Y119.289 E.02606 ; brim
G1 X150.652 Y119.455 E.009 ; brim
G1 X149.884 Y119.714 E.02606 ; brim
G1 X100.117 Y119.714 E1.60033 ; brim
G1 X99.51 Y119.535 E.02035 ; brim
G1 X99.235 Y119.379 E.01017 ; brim
G1 X98.662 Y118.829 E.02552 ; brim
G1 X98.495 Y118.602 E.00907 ; brim
G1 X98.236 Y117.833 E.02608 ; brim
G1 X98.25 Y95.271 E.72554 ; brim
G1 X98.469 Y93.983 E.042 ; brim
G1 X98.982 Y92.832 E.04051 ; brim
G1 X99.731 Y91.878 E.039 ; brim
G1 X100.049 Y92.13 F3600 ; move to first brim point
G1 F1200
G1 X100.091 Y92.077 E.00218 ; brim
G1 X101.049 Y91.348 E.0387 ; brim
G1 X102.152 Y90.879 E.03854 ; brim
G1 X103.421 Y90.693 E.04126 ; brim
G1 X146.597 Y90.695 E1.38838 ; brim
G1 X147.916 Y90.898 E.0429 ; brim
G1 X148.962 Y91.354 E.03669 ; brim
G1 X149.839 Y92.01 E.03524 ; brim
G1 X150.777 Y93.23 E.04949 ; brim
G1 X151.183 Y94.244 E.03512 ; brim
G1 X151.347 Y95.326 E.03517 ; brim
G1 X151.357 Y117.784 E.72217 ; brim
G1 X151.291 Y118.086 E.00994 ; brim
G1 X151.087 Y118.49 E.01455 ; brim
G1 X150.599 Y118.991 E.02249 ; brim
G1 X150.439 Y119.107 E.00637 ; brim
G1 X149.85 Y119.307 E.02 ; brim
G1 X100.149 Y119.307 E1.59822 ; brim
G1 X99.655 Y119.155 E.01661 ; brim
G1 X99.464 Y119.042 E.00712 ; brim
G1 X98.96 Y118.551 E.02263 ; brim
G1 X98.843 Y118.389 E.00643 ; brim
G1 X98.643 Y117.8 E.02 ; brim
G1 X98.654 Y95.32 E.72287 ; brim
G1 X98.852 Y94.125 E.03897 ; brim
G1 X99.343 Y93.022 E.03882 ; brim
G1 X100.012 Y92.177 E.03464 ; brim
G1 X100.329 Y92.431 F3600 ; move to first brim point
G1 F1200
G1 X100.393 Y92.352 E.00325 ; brim
G1 X101.273 Y91.689 E.03545 ; brim
G1 X102.284 Y91.265 E.03528 ; brim
G1 X103.435 Y91.1 E.03739 ; brim
G1 X146.582 Y91.102 E1.38745 ; brim
G1 X147.78 Y91.283 E.03894 ; brim
G1 X148.738 Y91.695 E.03353 ; brim
G1 X149.573 Y92.319 E.03355 ; brim
G1 X150.41 Y93.409 E.0442 ; brim
G1 X150.784 Y94.329 E.03194 ; brim
G1 X150.942 Y95.372 E.03389 ; brim
G1 X150.95 Y117.763 E.72004 ; brim
G1 X150.916 Y117.927 E.00536 ; brim
G1 X150.739 Y118.276 E.01258 ; brim
G1 X150.326 Y118.689 E.01879 ; brim
G1 X150.229 Y118.757 E.00382 ; brim
G1 X149.816 Y118.9 E.01406 ; brim
G1 X100.183 Y118.9 E1.59601 ; brim
G1 X99.809 Y118.777 E.01266 ; brim
M73 P2 R31
M73 Q2 S31
G1 X99.7 Y118.71 E.0041 ; brim
G1 X99.261 Y118.275 E.01987 ; brim
G1 X99.193 Y118.179 E.0038 ; brim
G1 X99.05 Y117.766 E.01406 ; brim
G1 X99.058 Y95.368 E.72023 ; brim
G1 X99.235 Y94.266 E.0359 ; brim
G1 X99.704 Y93.212 E.03709 ; brim
G1 X100.292 Y92.478 E.03023 ; brim
G1 X100.607 Y92.727 F3600 ; move to first brim point
G1 F1200
G1 X100.659 Y92.661 E.0027 ; brim
G1 X101.497 Y92.03 E.03374 ; brim
G1 X102.415 Y91.651 E.03194 ; brim
G1 X103.449 Y91.507 E.03358 ; brim
G1 X146.568 Y91.509 E1.38654 ; brim
G1 X147.646 Y91.668 E.03504 ; brim
G1 X148.514 Y92.036 E.03033 ; brim
G1 X149.307 Y92.628 E.03184 ; brim
G1 X150.043 Y93.588 E.03888 ; brim
G1 X150.397 Y94.459 E.03025 ; brim
G1 X150.537 Y95.415 E.03106 ; brim
G1 X150.543 Y117.745 E.71803 ; brim
G1 X150.424 Y118.015 E.00948 ; brim
G1 X150.054 Y118.385 E.01685 ; brim
G1 X149.779 Y118.493 E.00948 ; brim
G1 X100.221 Y118.493 E1.59363 ; brim
G1 X99.975 Y118.405 E.00838 ; brim
G1 X99.565 Y118.004 E.01845 ; brim
G1 X99.457 Y117.729 E.00948 ; brim
G1 X99.463 Y95.414 E.71759 ; brim
G1 X99.618 Y94.404 E.03286 ; brim
G1 X100.04 Y93.443 E.03374 ; brim
G1 X100.569 Y92.774 E.02742 ; brim
G1 X100.889 Y93.027 F3600 ; move to first brim point
G1 F1200
G1 X100.961 Y92.935 E.00375 ; brim
G1 X101.718 Y92.373 E.03032 ; brim
G1 X102.543 Y92.038 E.02863 ; brim
G1 X103.462 Y91.914 E.02983 ; brim
G1 X146.554 Y91.916 E1.38566 ; brim
G1 X147.512 Y92.053 E.03112 ; brim
G1 X148.332 Y92.401 E.02863 ; brim
G1 X149.04 Y92.936 E.02854 ; brim
G1 X149.677 Y93.766 E.03365 ; brim
G1 X150.011 Y94.589 E.02854 ; brim
G1 X150.132 Y95.457 E.02819 ; brim
G1 X150.136 Y117.684 E.71475 ; brim
G1 X150.105 Y117.759 E.0026 ; brim
G1 X149.809 Y118.055 E.01345 ; brim
G1 X149.734 Y118.086 E.0026 ; brim
G1 X100.266 Y118.086 E1.59072 ; brim
G1 X100.191 Y118.055 E.0026 ; brim
M73 P2 R30
G1 X99.895 Y117.759 E.01345 ; brim
G1 X99.864 Y117.684 E.0026 ; brim
G1 X99.868 Y95.458 E.71472 ; brim
G1 X100.003 Y94.539 E.02985 ; brim
G1 X100.377 Y93.674 E.0303 ; brim
G1 X100.851 Y93.074 E.02461 ; brim
G1 X101.168 Y93.321 F3600 ; move to first brim point
G1 F1200
G1 X101.229 Y93.243 E.00317 ; brim
G1 X101.896 Y92.74 E.02688 ; brim
G1 X102.671 Y92.426 E.0269 ; brim
G1 X103.475 Y92.321 E.02606 ; brim
G1 X146.54 Y92.324 E1.38483 ; brim
G1 X147.378 Y92.439 E.0272 ; brim
M73 P3 R30
M73 Q2 S30
G1 X148.148 Y92.765 E.0269 ; brim
G1 X148.77 Y93.242 E.0252 ; brim
M73 Q3 S30
G1 X149.311 Y93.947 E.02858 ; brim
G1 X149.611 Y94.671 E.0252 ; brim
G1 X149.727 Y95.499 E.02688 ; brim
G1 X149.729 Y117.559 E.70937 ; brim
G1 X149.609 Y117.679 E.00542 ; brim
G1 X100.391 Y117.679 E1.58269 ; brim
G1 X100.271 Y117.559 E.00542 ; brim
G1 X100.273 Y95.499 E.70937 ; brim
G1 X100.389 Y94.672 E.02686 ; brim
G1 X100.715 Y93.902 E.02688 ; brim
G1 X101.131 Y93.368 E.02178 ; brim
; printing object UltraSonicSensor.stl id:0 copy 0
;WIPE_START
G1 F2880
G1 X101.229 Y93.243 E-.09413 ; wipe and retract
G1 X101.896 Y92.74 E-.49629 ; wipe and retract
G1 X102.161 Y92.632 E-.16958 ; wipe and retract
;WIPE_END
G1 E-.04 F1800 ; retract
G1 Z.4 F3600 ; lift Z
G1 X100.7 Y107.801 ; move to first perimeter point
G1 Z.2 ; restore layer Z
G1 E.8 F1800 ;  ; unretract
;TYPE:External perimeter
G1 F1200
G1 X100.7 Y95.54 E.39426 ; perimeter
G1 X100.796 Y94.807 E.02376 ; perimeter
G1 X101.073 Y94.138 E.02328 ; perimeter
G1 X101.514 Y93.564 E.02328 ; perimeter
G1 X102.088 Y93.123 E.02328 ; perimeter
G1 X102.757 Y92.846 E.02328 ; perimeter
G1 X103.49 Y92.75 E.02376 ; perimeter
G1 X146.526 Y92.752 E1.38389 ; perimeter
G1 X147.243 Y92.846 E.02324 ; perimeter
G1 X147.912 Y93.123 E.02328 ; perimeter
G1 X148.486 Y93.564 E.02328 ; perimeter
G1 X148.927 Y94.138 E.02328 ; perimeter
G1 X149.204 Y94.807 E.02328 ; perimeter
G1 X149.3 Y95.54 E.02376 ; perimeter
G1 X149.3 Y117.25 E.69812 ; perimeter
G1 X100.7 Y117.25 E1.5628 ; perimeter
G1 X100.7 Y107.861 E.30193 ; perimeter
G1 X100.922 Y107.468 F3600 ; move inwards before travel
;WIPE_START
G1 F2880
G1 X100.7 Y106.581 E-.76 ; wipe and retract
;WIPE_END
G1 E-.04 F1800 ; retract
G1 Z.4 F3600 ; lift Z
G1 X146.499 Y93.159 ; move to first perimeter point
G1 Z.2 ; restore layer Z
G1 E.8 F1800 ;  ; unretract
;TYPE:Perimeter
G1 F1200
G1 X147.136 Y93.243 E.02066 ; perimeter
G1 X147.706 Y93.479 E.01983 ; perimeter
G1 X148.196 Y93.854 E.01983 ; perimeter
G1 X148.571 Y94.344 E.01983 ; perimeter
G1 X148.807 Y94.914 E.01983 ; perimeter
G1 X148.893 Y95.566 E.02118 ; perimeter
G1 X148.893 Y116.843 E.68417 ; perimeter
G1 X101.107 Y116.843 E1.53662 ; perimeter
G1 X101.107 Y95.566 E.68417 ; perimeter
G1 X101.193 Y94.914 E.02118 ; perimeter
G1 X101.429 Y94.344 E.01983 ; perimeter
G1 X101.804 Y93.854 E.01983 ; perimeter
G1 X102.294 Y93.479 E.01983 ; perimeter
G1 X102.864 Y93.243 E.01983 ; perimeter
G1 X103.516 Y93.157 E.02117 ; perimeter
G1 X146.439 Y93.159 E1.38025 ; perimeter
G1 X146.473 Y93.566 F3600 ; move to first perimeter point
M73 P4 R30
M73 Q4 S30
G1 F1200
G1 X147.03 Y93.64 E.01808 ; perimeter
G1 X147.501 Y93.835 E.01639 ; perimeter
G1 X147.905 Y94.145 E.01638 ; perimeter
G1 X148.215 Y94.549 E.01638 ; perimeter
G1 X148.41 Y95.02 E.01639 ; perimeter
G1 X148.486 Y95.593 E.01859 ; perimeter
G1 X148.486 Y116.436 E.67023 ; perimeter
G1 X101.514 Y116.436 E1.51044 ; perimeter
G1 X101.514 Y95.593 E.67023 ; perimeter
G1 X101.59 Y95.02 E.01859 ; perimeter
G1 X101.785 Y94.549 E.01639 ; perimeter
G1 X102.095 Y94.145 E.01638 ; perimeter
G1 X102.499 Y93.835 E.01638 ; perimeter
G1 X102.97 Y93.64 E.01639 ; perimeter
G1 X103.543 Y93.564 E.01859 ; perimeter
G1 X146.413 Y93.566 E1.37853 ; perimeter
;WIPE_START
G1 F2880
G1 X147.03 Y93.64 E-.36921 ; wipe and retract
G1 X147.501 Y93.835 E-.30254 ; wipe and retract
G1 X147.619 Y93.925 E-.08825 ; wipe and retract
;WIPE_END
G1 E-.04 F1800 ; retract
G1 Z.4 F3600 ; lift Z
G1 X120.048 Y115.498 ; move to first perimeter point
G1 Z.2 ; restore layer Z
G1 E.8 F1800 ;  ; unretract
G1 F1200
G1 X120.583 Y115.72 E.01863 ; perimeter
G1 X121.196 Y115.8 E.01987 ; perimeter
G1 X121.181 Y116.029 E.00736 ; perimeter
G1 X101.921 Y116.029 E.61932 ; perimeter
G1 X101.921 Y106.824 E.29601 ; perimeter
G1 X102.131 Y106.794 E.00682 ; perimeter
G1 X102.377 Y107.643 E.02842 ; perimeter
G1 X102.661 Y108.392 E.02576 ; perimeter
G1 X103.005 Y109.115 E.02576 ; perimeter
G1 X103.406 Y109.811 E.02581 ; perimeter
G1 X103.874 Y110.486 E.02642 ; perimeter
G1 X104.367 Y111.089 E.02504 ; perimeter
G1 X104.922 Y111.667 E.02576 ; perimeter
G1 X105.521 Y112.198 E.02576 ; perimeter
G1 X106.162 Y112.679 E.02576 ; perimeter
G1 X106.82 Y113.095 E.02504 ; perimeter
G1 X107.547 Y113.479 E.02643 ; perimeter
G1 X108.285 Y113.793 E.02581 ; perimeter
G1 X109.045 Y114.047 E.02576 ; perimeter
G1 X109.823 Y114.239 E.02576 ; perimeter
G1 X110.591 Y114.364 E.02504 ; perimeter
G1 X111.41 Y114.432 E.02643 ; perimeter
G1 X112.213 Y114.432 E.02581 ; perimeter
G1 X113.012 Y114.367 E.02576 ; perimeter
G1 X113.802 Y114.239 E.02576 ; perimeter
G1 X114.58 Y114.047 E.02576 ; perimeter
G1 X115.34 Y113.793 E.02576 ; perimeter
G1 X116.056 Y113.488 E.02504 ; perimeter
G1 X116.785 Y113.108 E.02642 ; perimeter
G1 X117.463 Y112.679 E.02582 ; perimeter
G1 X117.743 Y112.469 E.01125 ; perimeter
G1 X117.805 Y112.942 E.01534 ; perimeter
G1 X118.198 Y113.889 E.03298 ; perimeter
G1 X118.822 Y114.703 E.03298 ; perimeter
G1 X119.636 Y115.327 E.03298 ; perimeter
G1 X119.992 Y115.475 E.01242 ; perimeter
G1 X118.552 Y115.622 F3600 ; move to first perimeter point
G1 F1200
G1 X102.328 Y115.622 E.52171 ; perimeter
G1 X102.328 Y109.084 E.21022 ; perimeter
G1 X102.519 Y109.041 E.00628 ; perimeter
G1 X102.644 Y109.305 E.00937 ; perimeter
G1 X103.062 Y110.029 E.02688 ; perimeter
G1 X103.549 Y110.731 E.02748 ; perimeter
G1 X104.062 Y111.359 E.02608 ; perimeter
G1 X104.639 Y111.96 E.02681 ; perimeter
G1 X105.264 Y112.513 E.02681 ; perimeter
G1 X105.93 Y113.014 E.02682 ; perimeter
G1 X106.616 Y113.448 E.02608 ; perimeter
G1 X107.371 Y113.847 E.02748 ; perimeter
G1 X108.141 Y114.174 E.02688 ; perimeter
G1 X108.932 Y114.438 E.02682 ; perimeter
G1 X109.741 Y114.638 E.02682 ; perimeter
G1 X110.542 Y114.768 E.02608 ; perimeter
G1 X111.393 Y114.839 E.02748 ; perimeter
G1 X112.229 Y114.839 E.02688 ; perimeter
G1 X113.061 Y114.772 E.02681 ; perimeter
G1 X113.884 Y114.638 E.02681 ; perimeter
G1 X114.693 Y114.438 E.02682 ; perimeter
G1 X115.484 Y114.174 E.02681 ; perimeter
G1 X116.23 Y113.857 E.02608 ; perimeter
G1 X116.988 Y113.461 E.02748 ; perimeter
G1 X117.457 Y113.165 E.01784 ; perimeter
G1 X117.842 Y114.095 E.03237 ; perimeter
G1 X118.532 Y114.993 E.03643 ; perimeter
G1 X119.135 Y115.456 E.02444 ; perimeter
G1 X119.078 Y115.622 E.00563 ; perimeter
G1 X118.612 Y115.622 E.01498 ; perimeter
;WIPE_START
G1 F2880
G1 X117.332 Y115.622 E-.76 ; wipe and retract
;WIPE_END
G1 E-.04 F1800 ; retract
G1 Z.4 F3600 ; lift Z
G1 X137.063 Y114.372 ; move to first perimeter point
G1 Z.2 ; restore layer Z
G1 E.8 F1800 ;  ; unretract
G1 F1200
G1 X137.785 Y114.432 E.02332 ; perimeter
G1 X138.588 Y114.432 E.02581 ; perimeter
G1 X139.387 Y114.367 E.02576 ; perimeter
G1 X140.177 Y114.239 E.02576 ; perimeter
G1 X140.955 Y114.047 E.02576 ; perimeter
G1 X141.715 Y113.793 E.02576 ; perimeter
G1 X142.431 Y113.488 E.02504 ; perimeter
G1 X143.16 Y113.108 E.02642 ; perimeter
G1 X143.838 Y112.679 E.02582 ; perimeter
G1 X144.479 Y112.198 E.02576 ; perimeter
G1 X145.078 Y111.667 E.02576 ; perimeter
G1 X145.633 Y111.089 E.02576 ; perimeter
G1 X146.14 Y110.468 E.02576 ; perimeter
G1 X146.595 Y109.809 E.02576 ; perimeter
G1 X146.984 Y109.135 E.02504 ; perimeter
G1 X147.338 Y108.393 E.02642 ; perimeter
G1 X147.623 Y107.643 E.02582 ; perimeter
G1 X147.869 Y106.794 E.02842 ; perimeter
G1 X148.079 Y106.824 E.00682 ; perimeter
G1 X148.079 Y116.029 E.29601 ; perimeter
G1 X129.319 Y116.029 E.60324 ; perimeter
G1 X129.304 Y115.8 E.00736 ; perimeter
G1 X129.917 Y115.72 E.01987 ; perimeter
G1 X130.864 Y115.327 E.03298 ; perimeter
G1 X131.678 Y114.703 E.03298 ; perimeter
G1 X132.302 Y113.889 E.03298 ; perimeter
G1 X132.748 Y112.813 E.03747 ; perimeter
G1 X133.214 Y113.107 E.01771 ; perimeter
G1 X133.923 Y113.479 E.02576 ; perimeter
G1 X134.66 Y113.793 E.02576 ; perimeter
G1 X135.42 Y114.047 E.02576 ; perimeter
G1 X136.198 Y114.239 E.02576 ; perimeter
G1 X137.003 Y114.367 E.02621 ; perimeter
G1 X136.537 Y114.706 F3600 ; move to first perimeter point
G1 F1200
G1 X136.917 Y114.768 E.01237 ; perimeter
G1 X137.768 Y114.839 E.02748 ; perimeter
G1 X138.604 Y114.839 E.02688 ; perimeter
G1 X139.436 Y114.772 E.02682 ; perimeter
G1 X140.259 Y114.638 E.02681 ; perimeter
G1 X141.068 Y114.438 E.02682 ; perimeter
G1 X141.859 Y114.174 E.02682 ; perimeter
G1 X142.605 Y113.857 E.02608 ; perimeter
G1 X143.363 Y113.461 E.02748 ; perimeter
G1 X144.07 Y113.014 E.02689 ; perimeter
G1 X144.736 Y112.513 E.02681 ; perimeter
