; generated by PrusaSlicer 2.4.1+win64 on 2022-04-19 at 18:52:02 UTC


;
;
; 

; external perimeters extrusion width = 0.42mm
; perimeters extrusion width = 0.45mm
; infill extrusion width = 0.45mm
; solid infill extrusion width = 0.45mm
; top infill extrusion width = 0.42mm
; first layer extrusion width = 0.45mm

M73 P0 R72
M73 Q0 S72
M201 X1000 Y1000 Z200 E3000 ; sets maximum accelerations, mm/sec^2
M203 X200 Y200 Z12 E120 ; sets maximum feedrates, mm / sec
M204 P1200 R1200 T1500 ; sets acceleration (P, T) and retract acceleration (R), mm/sec^2
M205 X6.00 Y6.00 Z0.40 E2.00 ; sets the jerk limits, mm/sec
M205 S0 T0 ; sets the minimum extruding and travel feed rate, mm/sec
M107 ; disable fan
;TYPE:Custom
M83  ; extruder relative mode
M140 S70 ; set bed temp
M109 S160 ; Set extruder temp before bed level
M190 S70 ; wait for bed temp


G28 W ; home all without mesh bed level
G80 ; mesh bed leveling set 3x3, 5x5, or 7x7 in settings menu

G1 Y-3.0 Z0.8 F1000.0 ; go outside print area

M109 S215 ; wait for extruder temp

G92 E0.0
G1 Z0.2 E8 ; Purge Bubble
G1 X60.0 E9.0  F1000.0 ; intro line
G1 X100.0 E12.5  F1000.0 ; intro line
G92 E0.0
G21 ; set units to millimeters
G90 ; use absolute coordinates
M83 ; use relative distances for extrusion
M900 K28; Filament gcode
M107 ; disable fan
;LAYER_CHANGE
;Z:0.2
;HEIGHT:0.2
;BEFORE_LAYER_CHANGE
G92 E0.0
;0.2




G1 E-.8 F1800 ; retract
G1 Z.2 F3000 ; lift Z
;AFTER_LAYER_CHANGE
;0.2
G1 Z.4 ; lift Z
G1 X104.298 Y86.697 ; move to first skirt point
G1 Z.2 ; restore layer Z
G1 E.8 F1800 ;  ; unretract
M204 P1000 ; adjust acceleration
;TYPE:Skirt/Brim
;WIDTH:0.45
G1 F1200
G1 X106.641 Y84.353 E.10656 ; skirt
G1 X108.343 Y83.648 E.05924 ; skirt
G1 X141.657 Y83.648 E1.07125 ; skirt
G1 X143.359 Y84.353 E.05924 ; skirt
G1 X145.702 Y86.697 E.10656 ; skirt
G1 X146.407 Y88.399 E.05924 ; skirt
G1 X146.407 Y121.712 E1.07125 ; skirt
G1 X145.702 Y123.414 E.05924 ; skirt
G1 X143.359 Y125.758 E.10656 ; skirt
G1 X141.657 Y126.463 E.05924 ; skirt
G1 X108.343 Y126.463 E1.07125 ; skirt
G1 X106.641 Y125.758 E.05924 ; skirt
G1 X104.298 Y123.414 E.10656 ; skirt
G1 X103.593 Y121.712 E.05924 ; skirt
G1 X103.593 Y88.399 E1.07125 ; skirt
G1 X104.275 Y86.752 E.05731 ; skirt
;WIPE_START
G1 F2400
G1 X105.024 Y85.993 E-.76 ; wipe and retract
;WIPE_END
G1 E-.04 F1800 ; retract
G1 Z.4 F3000 ; lift Z
G1 X106.952 Y88.408 ; move to first brim point
G1 Z.2 ; restore layer Z
G1 E.8 F1800 ;  ; unretract
G1 F1200
G1 X107.272 Y87.89 E.01959 ; brim
G1 X107.818 Y87.344 E.02481 ; brim
G1 X108.224 Y87.037 E.01635 ; brim
G1 X109.542 Y86.595 E.04471 ; brim
G1 X140.442 Y86.599 E.99364 ; brim
G1 X141.094 Y86.733 E.02139 ; brim
G1 X141.757 Y87.03 E.02336 ; brim
G1 X142.691 Y87.85 E.03995 ; brim
G1 X143.209 Y88.667 E.0311 ; brim
G1 X143.46 Y89.61 E.03139 ; brim
G1 X143.46 Y120.501 E.99335 ; brim
G1 X143.209 Y121.443 E.03135 ; brim
G1 X142.728 Y122.221 E.02942 ; brim
G1 X142.182 Y122.767 E.02481 ; brim
G1 X141.776 Y123.074 E.01635 ; brim
G1 X140.458 Y123.516 E.04471 ; brim
G1 X109.554 Y123.516 E.99375 ; brim
G1 X108.612 Y123.265 E.03135 ; brim
G1 X107.834 Y122.783 E.02942 ; brim
G1 X107.289 Y122.238 E.02481 ; brim
G1 X106.982 Y121.832 E.01635 ; brim
G1 X106.54 Y120.514 E.04471 ; brim
G1 X106.54 Y89.61 E.99375 ; brim
G1 X106.791 Y88.668 E.03135 ; brim
G1 X106.92 Y88.459 E.0079 ; brim
G1 X107.259 Y88.67 F3000 ; move to first brim point
G1 F1200
G1 X107.576 Y88.161 E.01928 ; brim
G1 X108.095 Y87.642 E.0236 ; brim
G1 X108.442 Y87.383 E.01391 ; brim
G1 X109.575 Y87.002 E.03845 ; brim
G1 X140.42 Y87.006 E.99187 ; brim
G1 X140.987 Y87.127 E.01861 ; brim
G1 X141.56 Y87.387 E.02025 ; brim
G1 X142.398 Y88.135 E.03613 ; brim
G1 X142.825 Y88.805 E.02553 ; brim
G1 X143.053 Y89.638 E.02779 ; brim
G1 X143.053 Y120.473 E.99155 ; brim
G1 X142.825 Y121.306 E.02777 ; brim
G1 X142.424 Y121.95 E.02439 ; brim
G1 X141.905 Y122.469 E.0236 ; brim
G1 X141.558 Y122.728 E.01391 ; brim
G1 X140.425 Y123.109 E.03844 ; brim
G1 X109.582 Y123.109 E.99179 ; brim
G1 X108.749 Y122.88 E.02777 ; brim
M73 P0 R71
G1 X108.106 Y122.479 E.02439 ; brim
G1 X107.587 Y121.96 E.0236 ; brim
G1 X107.327 Y121.614 E.01391 ; brim
G1 X106.947 Y120.481 E.03844 ; brim
G1 X106.947 Y89.638 E.99179 ; brim
G1 X107.175 Y88.805 E.02777 ; brim
G1 X107.228 Y88.721 E.00318 ; brim
G1 X107.566 Y88.934 F3000 ; move to first brim point
G1 F1200
G1 X107.88 Y88.433 E.019 ; brim
G1 X108.372 Y87.941 E.02238 ; brim
G1 X108.658 Y87.729 E.01145 ; brim
G1 X109.608 Y87.409 E.03223 ; brim
G1 X140.397 Y87.413 E.99007 ; brim
G1 X140.876 Y87.519 E.01576 ; brim
M73 Q0 S71
G1 X141.36 Y87.743 E.01713 ; brim
G1 X142.105 Y88.418 E.03233 ; brim
G1 X142.442 Y88.945 E.02013 ; brim
G1 X142.646 Y89.667 E.02413 ; brim
G1 X142.646 Y120.444 E.98968 ; brim
G1 X142.442 Y121.166 E.02413 ; brim
G1 X142.12 Y121.678 E.01943 ; brim
G1 X141.628 Y122.17 E.02238 ; brim
G1 X141.342 Y122.382 E.01145 ; brim
G1 X140.392 Y122.702 E.03223 ; brim
G1 X109.611 Y122.702 E.98979 ; brim
G1 X108.89 Y122.497 E.02413 ; brim
G1 X108.378 Y122.175 E.01943 ; brim
G1 X107.886 Y121.683 E.02238 ; brim
G1 X107.673 Y121.397 E.01145 ; brim
G1 X107.354 Y120.447 E.03223 ; brim
G1 X107.354 Y89.667 E.98979 ; brim
G1 X107.546 Y88.99 E.02263 ; brim
G1 X107.936 Y89.105 F3000 ; move to first brim point
G1 F1200
G1 X108.183 Y88.706 E.0151 ; brim
G1 X108.649 Y88.24 E.02116 ; brim
G1 X108.873 Y88.076 E.00895 ; brim
G1 X109.641 Y87.817 E.02607 ; brim
G1 X140.373 Y87.82 E.98822 ; brim
G1 X140.761 Y87.91 E.01281 ; brim
G1 X141.156 Y88.097 E.01404 ; brim
G1 X141.809 Y88.699 E.02857 ; brim
G1 X142.06 Y89.089 E.01491 ; brim
G1 X142.239 Y89.697 E.02039 ; brim
G1 X142.239 Y120.414 E.98774 ; brim
G1 X142.06 Y121.022 E.0204 ; brim
G1 X141.817 Y121.405 E.01459 ; brim
G1 X141.351 Y121.871 E.02116 ; brim
G1 X141.127 Y122.035 E.00895 ; brim
G1 X140.359 Y122.294 E.02607 ; brim
G1 X109.642 Y122.294 E.98775 ; brim
G1 X109.033 Y122.115 E.0204 ; brim
G1 X108.65 Y121.872 E.01459 ; brim
G1 X108.185 Y121.407 E.02116 ; brim
G1 X108.02 Y121.182 E.00895 ; brim
G1 X107.761 Y120.414 E.02607 ; brim
G1 X107.761 Y89.697 E.98775 ; brim
G1 X107.919 Y89.162 E.01793 ; brim
M73 P1 R71
M73 Q1 S71
G1 X108.306 Y89.282 F3000 ; move to first brim point
G1 F1200
G1 X108.486 Y88.979 E.01134 ; brim
G1 X108.925 Y88.54 E.01993 ; brim
G1 X109.086 Y88.424 E.00641 ; brim
G1 X109.675 Y88.224 E.02 ; brim
G1 X140.35 Y88.228 E.98639 ; brim
G1 X140.607 Y88.287 E.00849 ; brim
G1 X140.952 Y88.451 E.01228 ; brim
G1 X141.512 Y88.977 E.02472 ; brim
G1 X141.68 Y89.237 E.00995 ; brim
G1 X141.832 Y89.729 E.01655 ; brim
G1 X141.832 Y120.382 E.98568 ; brim
G1 X141.68 Y120.874 E.01656 ; brim
G1 X141.514 Y121.132 E.00988 ; brim
G1 X141.075 Y121.571 E.01993 ; brim
G1 X140.914 Y121.687 E.00641 ; brim
G1 X140.325 Y121.887 E.02 ; brim
G1 X109.674 Y121.887 E.98564 ; brim
G1 X109.182 Y121.735 E.01656 ; brim
G1 X108.923 Y121.569 E.00988 ; brim
G1 X108.485 Y121.131 E.01993 ; brim
G1 X108.368 Y120.969 E.00641 ; brim
G1 X108.168 Y120.381 E.02 ; brim
G1 X108.168 Y89.729 E.98564 ; brim
G1 X108.289 Y89.339 E.01312 ; brim
G1 X108.673 Y89.465 F3000 ; move to first brim point
G1 F1200
G1 X108.697 Y89.392 E.0025 ; brim
G1 X108.788 Y89.252 E.00536 ; brim
G1 X109.199 Y88.842 E.01867 ; brim
G1 X109.296 Y88.773 E.00382 ; brim
G1 X109.709 Y88.631 E.01406 ; brim
G1 X140.326 Y88.635 E.98452 ; brim
G1 X140.452 Y88.664 E.00417 ; brim
G1 X140.747 Y88.804 E.01049 ; brim
G1 X141.212 Y89.254 E.02081 ; brim
G1 X141.303 Y89.392 E.0053 ; brim
G1 X141.425 Y89.763 E.01258 ; brim
G1 X141.425 Y120.348 E.98348 ; brim
G1 X141.303 Y120.719 E.01258 ; brim
G1 X141.212 Y120.859 E.00536 ; brim
G1 X140.801 Y121.269 E.01867 ; brim
G1 X140.704 Y121.338 E.00382 ; brim
G1 X140.291 Y121.48 E.01406 ; brim
G1 X109.708 Y121.48 E.98343 ; brim
G1 X109.336 Y121.358 E.01258 ; brim
G1 X109.197 Y121.267 E.00536 ; brim
G1 X108.786 Y120.856 E.01867 ; brim
G1 X108.718 Y120.759 E.00382 ; brim
G1 X108.575 Y120.346 E.01406 ; brim
G1 X108.575 Y89.763 E.98343 ; brim
G1 X108.654 Y89.522 E.00815 ; brim
G1 X109.033 Y89.658 F3000 ; move to first brim point
G1 F1200
G1 X109.09 Y89.527 E.00461 ; brim
G1 X109.471 Y89.145 E.01734 ; brim
G1 X109.746 Y89.038 E.00948 ; brim
G1 X140.27 Y89.038 E.98154 ; brim
G1 X140.54 Y89.156 E.00948 ; brim
G1 X140.91 Y89.527 E.01685 ; brim
G1 X141.018 Y89.801 E.00948 ; brim
G1 X141.018 Y120.31 E.98105 ; brim
G1 X140.91 Y120.584 E.00948 ; brim
G1 X140.529 Y120.966 E.01734 ; brim
G1 X140.254 Y121.073 E.00948 ; brim
G1 X109.746 Y121.073 E.98105 ; brim
G1 X109.471 Y120.966 E.00948 ; brim
G1 X109.09 Y120.584 E.01734 ; brim
G1 X108.982 Y120.31 E.00948 ; brim
G1 X108.982 Y89.801 E.98105 ; brim
G1 X109.013 Y89.715 E.00295 ; brim
G1 X109.389 Y89.846 F3000 ; move to first brim point
G1 F1200
G1 X109.42 Y89.772 E.0026 ; brim
G1 X109.716 Y89.476 E.01345 ; brim
G1 X109.791 Y89.445 E.0026 ; brim
G1 X140.209 Y89.445 E.97814 ; brim
G1 X140.284 Y89.476 E.0026 ; brim
G1 X140.58 Y89.772 E.01345 ; brim
G1 X140.611 Y89.846 E.0026 ; brim
G1 X140.611 Y120.265 E.97814 ; brim
G1 X140.58 Y120.339 E.0026 ; brim
G1 X140.284 Y120.635 E.01345 ; brim
G1 X140.209 Y120.666 E.0026 ; brim
G1 X109.791 Y120.666 E.97814 ; brim
G1 X109.716 Y120.635 E.0026 ; brim
G1 X109.42 Y120.339 E.01345 ; brim
G1 X109.389 Y120.265 E.0026 ; brim
G1 X109.389 Y89.906 E.97621 ; brim
G1 X109.796 Y89.971 F3000 ; move to first brim point
G1 F1200
G1 X109.916 Y89.852 E.00542 ; brim
G1 X140.084 Y89.852 E.97011 ; brim
G1 X140.204 Y89.971 E.00542 ; brim
G1 X140.204 Y120.14 E.97011 ; brim
G1 X140.084 Y120.259 E.00542 ; brim
G1 X109.916 Y120.259 E.97011 ; brim
G1 X109.796 Y120.14 E.00542 ; brim
G1 X109.796 Y90.031 E.96818 ; brim
; printing object GPS_72mm_w-shrink.stl id:0 copy 0
;WIPE_START
G1 F2400
G1 X109.916 Y89.852 E-.15338 ; wipe and retract
G1 X110.767 Y89.852 E-.60662 ; wipe and retract
;WIPE_END
G1 E-.04 F1800 ; retract
G1 Z.4 F3000 ; lift Z
G1 X110.225 Y109.671 ; move to first perimeter point
G1 Z.2 ; restore layer Z
G1 E.8 F1800 ;  ; unretract
;TYPE:External perimeter
G1 F1200
G1 X110.225 Y90.28 E.62354 ; perimeter
G1 X139.775 Y90.28 E.95022 ; perimeter
G1 X139.775 Y119.831 E.95022 ; perimeter
G1 X110.225 Y119.831 E.95022 ; perimeter
G1 X110.225 Y109.731 E.32475 ; perimeter
G1 X110.462 Y109.349 F3000 ; move inwards before travel
G1 X110.632 Y109.671 ; move to first perimeter point
;TYPE:Perimeter
G1 F1200
G1 X110.632 Y90.688 E.61045 ; perimeter
G1 X139.368 Y90.688 E.92404 ; perimeter
G1 X139.368 Y119.423 E.92404 ; perimeter
G1 X110.632 Y119.423 E.92404 ; perimeter
M73 P2 R71
G1 X110.632 Y109.731 E.31166 ; perimeter
M73 Q2 S71
G1 X111.039 Y108.898 F3000 ; move to first perimeter point
G1 F1200
M73 P2 R70
G1 X115.841 Y108.898 E.15441 ; perimeter
G1 X115.841 Y100.814 E.25993 ; perimeter
G1 X111.039 Y100.814 E.15441 ; perimeter
G1 X111.039 Y96.897 E.12598 ; perimeter
G1 X115.842 Y96.897 E.15445 ; perimeter
G1 X115.842 Y91.814 E.16343 ; perimeter
G1 X111.039 Y91.814 E.15445 ; perimeter
G1 X111.039 Y91.095 E.02314 ; perimeter
G1 X138.961 Y91.095 E.89786 ; perimeter
G1 X138.961 Y119.016 E.89786 ; perimeter
M73 Q2 S70
G1 X111.039 Y119.016 E.89786 ; perimeter
G1 X111.039 Y118.398 E.01989 ; perimeter
G1 X115.841 Y118.398 E.15441 ; perimeter
G1 X115.841 Y113.313 E.16349 ; perimeter
G1 X111.039 Y113.313 E.15441 ; perimeter
G1 X111.039 Y108.958 E.14006 ; perimeter
;WIPE_START
G1 F2400
G1 X112.106 Y108.944 E-.76 ; wipe and retract
;WIPE_END
G1 E-.04 F1800 ; retract
G1 Z.4 F3000 ; lift Z
G1 X136.437 Y114.129 ; move to first perimeter point
G1 Z.2 ; restore layer Z
G1 E.8 F1800 ;  ; unretract
;TYPE:External perimeter
G1 F1200
G1 X137.428 Y114.129 E.03186 ; perimeter
G1 X137.428 Y117.584 E.1111 ; perimeter
G1 X133.972 Y117.584 E.11113 ; perimeter
G1 X133.972 Y114.129 E.1111 ; perimeter
G1 X136.377 Y114.129 E.07734 ; perimeter
G1 X136.519 Y113.737 F3000 ; move inwards before travel
G1 X136.437 Y113.721 ; move to first perimeter point
;TYPE:Perimeter
G1 F1200
G1 X137.835 Y113.721 E.04495 ; perimeter
G1 X137.835 Y117.991 E.13728 ; perimeter
G1 X133.565 Y117.991 E.13731 ; perimeter
G1 X133.565 Y113.721 E.13728 ; perimeter
G1 X136.377 Y113.721 E.09043 ; perimeter
G1 X136.437 Y113.314 F3000 ; move to first perimeter point
G1 F1200
G1 X138.242 Y113.314 E.05804 ; perimeter
G1 X138.242 Y118.398 E.16346 ; perimeter
G1 X133.158 Y118.398 E.16349 ; perimeter
G1 X133.158 Y113.314 E.16346 ; perimeter
G1 X136.377 Y113.314 E.10352 ; perimeter
;WIPE_START
G1 F2400
G1 X137.444 Y113.314 E-.76 ; wipe and retract
;WIPE_END
G1 E-.04 F1800 ; retract
G1 Z.4 F3000 ; lift Z
G1 X121.517 Y114.63 ; move to first perimeter point
G1 Z.2 ; restore layer Z
G1 E.8 F1800 ;  ; unretract
;TYPE:External perimeter
G1 F1200
G1 X121.527 Y114.009 E.01995 ; perimeter
G1 X122.38 Y114.362 E.02966 ; perimeter
G1 X124.9 Y114.694 E.08174 ; perimeter
G1 X127.42 Y114.362 E.08175 ; perimeter
G1 X127.982 Y114.13 E.01952 ; perimeter
G1 X127.923 Y117.487 E.10797 ; perimeter
G1 X121.469 Y117.375 E.20757 ; perimeter
G1 X121.516 Y114.69 E.08635 ; perimeter
G1 X121.121 Y114.569 F3000 ; move inwards before travel
G1 X121.11 Y114.623 ; move to first perimeter point
;TYPE:Perimeter
G1 F1200
G1 X121.131 Y113.405 E.03917 ; perimeter
G1 X122.486 Y113.965 E.04716 ; perimeter
G1 X124.9 Y114.283 E.0783 ; perimeter
G1 X127.314 Y113.965 E.07831 ; perimeter
G1 X128.399 Y113.517 E.03774 ; perimeter
G1 X128.323 Y117.902 E.141 ; perimeter
G1 X121.055 Y117.774 E.23374 ; perimeter
G1 X121.109 Y114.683 E.09944 ; perimeter
G1 X120.703 Y114.615 F3000 ; move to first perimeter point
G1 F1200
G1 X120.734 Y112.8 E.05838 ; perimeter
G1 X122.592 Y113.569 E.06465 ; perimeter
G1 X124.9 Y113.873 E.07486 ; perimeter
G1 X127.208 Y113.569 E.07487 ; perimeter
G1 X128.817 Y112.905 E.05596 ; perimeter
G1 X128.723 Y118.316 E.17403 ; perimeter
G1 X120.641 Y118.174 E.25992 ; perimeter
G1 X120.702 Y114.675 E.11253 ; perimeter
;WIPE_START
G1 F2400
G1 X120.72 Y113.609 E-.76 ; wipe and retract
;WIPE_END
G1 E-.04 F1800 ; retract
G1 Z.4 F3000 ; lift Z
G1 X127.512 Y92.625 ; move to first perimeter point
G1 Z.2 ; restore layer Z
G1 E.8 F1800 ;  ; unretract
;TYPE:External perimeter
G1 F1200
G1 X127.932 Y92.632 E.0135 ; perimeter
G1 X127.879 Y95.66 E.09738 ; perimeter
G1 X124.898 Y95.217 E.0969 ; perimeter
G1 X122.38 Y95.549 E.08168 ; perimeter
G1 X121.418 Y95.948 E.0335 ; perimeter
G1 X121.477 Y92.52 E.11027 ; perimeter
G1 X127.452 Y92.624 E.19217 ; perimeter
G1 X127.656 Y92.252 F3000 ; move inwards before travel
G1 X128.346 Y92.233 ; move to first perimeter point
;TYPE:Perimeter
G1 F1200
G1 X128.278 Y96.131 E.12538 ; perimeter
G1 X124.895 Y95.628 E.10998 ; perimeter
G1 X122.486 Y95.946 E.07812 ; perimeter
G1 X121 Y96.562 E.05174 ; perimeter
G1 X121.077 Y92.105 E.14333 ; perimeter
G1 X128.286 Y92.232 E.23185 ; perimeter
G1 X127.526 Y91.811 F3000 ; move to first perimeter point
G1 F1200
G1 X128.76 Y91.833 E.03968 ; perimeter
G1 X128.677 Y96.602 E.15338 ; perimeter
G1 X124.891 Y96.04 E.12306 ; perimeter
G1 X122.593 Y96.342 E.07456 ; perimeter
G1 X120.582 Y97.176 E.06998 ; perimeter
G1 X120.677 Y91.691 E.17639 ; perimeter
G1 X127.466 Y91.81 E.21835 ; perimeter
;WIPE_START
G1 F2400
G1 X128.533 Y91.829 E-.76 ; wipe and retract
;WIPE_END
G1 E-.04 F1800 ; retract
G1 Z.4 F3000 ; lift Z
G1 X133.973 Y92.555 ; move to first perimeter point
G1 Z.2 ; restore layer Z
G1 E.8 F1800 ;  ; unretract
;TYPE:External perimeter
G1 F1200
G1 X133.973 Y92.527 E.00088 ; perimeter
G1 X137.428 Y92.527 E.1111 ; perimeter
G1 X137.428 Y95.983 E.1111 ; perimeter
G1 X133.973 Y95.983 E.1111 ; perimeter
G1 X133.973 Y92.615 E.10829 ; perimeter
G1 X133.947 Y92.548 F3000 ; move inwards before travel
G1 X133.566 Y92.12 ; move to first perimeter point
;TYPE:Perimeter
G1 F1200
G1 X137.835 Y92.12 E.13728 ; perimeter
G1 X137.835 Y96.39 E.13728 ; perimeter
G1 X133.566 Y96.39 E.13728 ; perimeter
G1 X133.566 Y92.18 E.13535 ; perimeter
G1 X133.159 Y91.713 F3000 ; move to first perimeter point
G1 F1200
G1 X138.242 Y91.713 E.16346 ; perimeter
G1 X138.242 Y96.797 E.16346 ; perimeter
G1 X133.159 Y96.797 E.16346 ; perimeter
G1 X133.159 Y91.773 E.16153 ; perimeter
;WIPE_START
